X: 28464
T: Mummers' Captain, The
R: jig
M: 6/8
K: Dmajor
|:B|AGF ABd|efd edB|AFB AGF|EFD EFG|
A z F ABd|efd edB|g/g/g a fdB|1 ABc d2:|2 ABc d2 f||
|:ece ABc|dAF G2 E|DEF ABd||efd egf|
[1 ece ABc|dAF G2 E|DEF Aaf||gec dgf:|
[2 edB A2 d|BAF GFE|DB,A, DEF|Adc d3||

